!!!OTL: Macht euch frei!
!!!OTL-incipit:WEM DEUTSCHES BLUT IN SEINEN PULSEN BRENNET
!!!ARE: Europa, Mitteleuropa, Deutschland
!!!SCT: F0412
!!!TXL: @@DE
!!!YEM: Copyright 1995, estate of Helmut Schaffrath.
**kern	**text
*ICvox	*
*clefG2	*
*M4/4	*
*met(c)	*
*k[]	*
*C:	*
!LO:TX:a:t=Kräftig.	!
{8g	1._Wem
8a	teutſches
8b/	.
=1	=1
4.cc	Blut
8cc	in
8.dd	ſei-
16cc	-nen
8.dd	Pulſen
16ee	.
=2	=2
4cc	brennet,
4g	.
8r}	.
{8g	wer
8b/	Hermanns
8cc	.
=3	=3
4.dd	und
8dd	Thuis-
8.ee	.
16dd	-kons
8.cc	Sohn
16ee	ſich
=4	=4
4dd	nennet,
4g	.
8r}	.
{8g	wer
8ee	gegen
8cc	.
=5	=5
4.b	Knechtſchaft
8b	.
8b	wil-
8b	-de
8ee	Ra-
8dd	-che
=6	=6
8ddL	ſprühet,
8ccJ	.
4cc	.
8r}	.
{8d	und
8cc	für
8b	der
=7	=7
4.a	Freiheit
8a	.
8a	Ʒau-
8a	-ber
8dd	heiß
8cc	er-
=8	=8
8ccL	-glü-
8bJ	.
4b	-het,
8r}	.
{8g	der
8b	tre-
8dd	-te
=9	=9
4.ff	männlich
8ff	.
4.ff	ſtolʒ
8ff	her-
=10	=10
4ff	-bei,
4r	.
8r}	.
{8ff	und
8ff	ru-
8ff	-ſe:
=11	=11
4ee	Teutſche,
8ggL	.
8ffJ	.
4ee	macht
4dd	euch
=12	=12
4cc	frei!
4r	.
8r}	.
==	==
!!!AGN: Vaterlands -, Heimat - Lied, nationalistisch
!!!ONB: ESAC (Essen Associative Code) Database: FINK
!!!AMT: simple quadruple
!!!AIN: vox
!!!EED: Helmut Schaffrath
!!!EEV: 1.0
!!Text: E. M. Arndt
!!!GTL: Vaterlands- und Heimathslieder
!!!source: Musikalischer Hausschatz der Deutschen. Eine Sammlung von über 1000 Liedern und Gesängen mit Singstimmen und Klavierbegleitung. Leipzig, Litterarisches Verlags-Haus.
!!!page: 252
!!!URL-scan: https://www.digitale-sammlungen.de/en/view/bsb11144622?page=242,243
!!!ENC: Anna Maria Matuszewska
!!!EEV: 2024/07/31
*-	*-
